assets/icons/bowtie/1.22/uE69D-view-list.svg

<svg xmlns="http://www.w3.org/2000/svg" viewBox="0 0 448 448" enable-background="new 0 0 448 448"><path d="M0 32v416h448v-416h-448zm32 32h96v96h-96v-96zm0 128h96v96h-96v-96zm0 224v-96h96v96h-96zm384 0h-256v-96h256v96zm0-128h-256v-96h256v96zm0-128h-256v-96h256v96z"/></svg>

<svg xmlns="http://www.w3.org/2000/svg" viewBox="0 0 448 448"><path d="M0 32v416h448V32H0zm32 32h96v96H32V64zm0 128h96v96H32v-96zm0 224v-96h96v96H32zm384 0H160v-96h256v96zm0-128H160v-96h256v96zm0-128H160V64h256v96z"/></svg>
